svg/u1f486_1f3fd_200d_2642.svg

<svg viewBox="0 0 128 128" xmlns="http://www.w3.org/2000/svg">
  <g id="shirt">
    <linearGradient id="SVGID_1_" gradientTransform="matrix(1 0 0 -1 0 128)" gradientUnits="userSpaceOnUse" x1="64" x2="64" y1="32.2259" y2="5.4338">
      <stop offset="0" stop-color="#00BFA5"/>
      <stop offset="0.4701" stop-color="#00B29A"/>
      <stop offset="1" stop-color="#009E89"/>
    </linearGradient>
    <path d="M64.13,96c-0.04,0-0.09,0-0.13,0c-25.49,0.03-52,7.28-52,25.06V124h1.5H15h98h1.5h1.5v-2.94 C116,104.3,89.74,96,64.13,96z" fill="url(#SVGID_1_)"/>
  </g>
  <g id="ears">
    <path d="M91.33,50.43H36.67c-5.89,0-10.71,5.14-10.71,11.41s4.82,11.41,10.71,11.41h54.65 c5.89,0,10.71-5.14,10.71-11.41S97.22,50.43,91.33,50.43z" fill="#99674F"/>
  </g>
  <g id="neck">
    <path d="M54.92,90.08v9.98c0,4.51,3.46,8.17,9.08,8.17s9.08-3.66,9.08-8.17v-9.98L54.92,90.08z" fill="#99674F"/>
  </g>
  <g id="head">
    <path d="M64,11.07L64,11.07L64,11.07c-17.4,0-33.52,18.61-33.52,45.4c0,26.64,16.61,39.81,33.52,39.81 S97.52,83.1,97.52,56.46C97.52,29.68,81.4,11.07,64,11.07z" fill="#BA8D68"/>
  </g>
  <path id="mouth" d="M72.32,76.14c-3.15,1.87-13.47,1.87-16.61,0c-1.81-1.07-3.65,0.57-2.9,2.21 c0.74,1.61,6.37,5.36,11.23,5.36s10.42-3.75,11.16-5.36C75.95,76.71,74.12,75.06,72.32,76.14z" fill="#5D4037"/>
  <path id="nose" d="M67.86,68.06c-0.11-0.04-0.21-0.07-0.32-0.08h-7.08c-0.11,0.01-0.22,0.04-0.32,0.08 c-0.64,0.26-0.99,0.92-0.69,1.63c0.3,0.71,1.71,2.69,4.55,2.69s4.25-1.99,4.55-2.69C68.85,68.98,68.5,68.32,67.86,68.06z" fill="#99674F"/>
  <g id="eyes">
    <path d="M47.63,60.3c-2.06,0-3.9-0.5-5.18-1.29c-0.55-0.34-0.87-0.14-0.77,0.5c0.37,2.48,2.9,4.4,5.95,4.4 c3.06,0,5.58-1.92,5.95-4.4c0.1-0.64-0.22-0.84-0.77-0.5C51.53,59.8,49.69,60.3,47.63,60.3z" fill="#49362E"/>
    <path d="M80.25,60.3c-2.06,0-3.9-0.5-5.18-1.29c-0.55-0.34-0.87-0.14-0.77,0.5c0.38,2.48,2.9,4.4,5.95,4.4 s5.58-1.92,5.95-4.4c0.1-0.64-0.22-0.84-0.77-0.5C84.15,59.8,82.3,60.3,80.25,60.3z" fill="#49362E"/>
  </g>
  <g id="eyebrows_1_">
    <path d="M40.02,50.73c3.18-4.51,10.66-4.66,14.41-0.82c0.65,0.67,1.34,1.53,0.85,2.5 c-0.54,1.07-1.65,0.9-2.56,0.53c-2.43-0.98-4.94-1.42-7.55-0.89c-1.13,0.23-2.1,0.7-3.17,1.08C40.56,53.62,39.09,52.12,40.02,50.73 z" fill="#613E31"/>
    <path d="M86.08,53.13c-2.23-0.97-4.49-1.53-6.95-1.25c-1.12,0.13-2.22,0.42-3.26,0.83 c-0.83,0.33-1.72,0.86-2.58,0.28c-2.45-1.69,1.89-4.44,3.17-4.99c2.76-1.19,6.05-1.08,8.72,0.31c1.06,0.55,2.21,1.35,2.84,2.4 C88.81,52.02,87.63,53.76,86.08,53.13z" fill="#613E31"/>
  </g>
  <g id="hairGroup">
    <path id="hair_7_" d="M64.02,4.21L64.02,4.21c-0.01,0-0.01,0-0.02,0s-0.01,0-0.02,0v0 C18.55,4.46,27.85,56.35,27.85,56.35s2.04,5.35,2.97,7.71c0.13,0.34,0.63,0.3,0.71-0.05c0.97-4.34,4.46-16.73,6.22-21.4 c1.04-2.76,3.9-4.36,6.79-3.83c4.45,0.81,11.55,1.81,19.37,1.81c0.03,0,0.06,0,0.08,0s0.06,0,0.08,0c7.82,0,14.92-1,19.37-1.81 c2.9-0.53,5.76,1.08,6.79,3.83c1.75,4.66,5.22,16.96,6.2,21.36c0.08,0.36,0.58,0.39,0.71,0.05l2.98-7.67 C100.15,56.35,109.46,4.46,64.02,4.21z" fill="#543930"/>
    <radialGradient id="hairHighlights_1_" cx="64.0005" cy="80.7176" gradientTransform="matrix(1 0 0 -1.1282 0 138.3469)" gradientUnits="userSpaceOnUse" r="38.0924">
      <stop offset="0.7945" stop-color="#6D4C41" stop-opacity="0"/>
      <stop offset="1" stop-color="#6D4C41"/>
    </radialGradient>
    <path id="hairHighlights" d="M100.15,56.35c0,0,9.31-51.9-36.13-52.14v0 c-0.01,0-0.01,0-0.02,0h0c-0.01,0-0.01,0-0.02,0l0,0c-0.71,0-1.4,0.02-2.08,0.05c-1.35,0.06-2.66,0.16-3.92,0.31 c-0.01,0-0.03,0-0.04,0c-0.09,0.01-0.17,0.03-0.26,0.04C19.44,9.43,27.85,56.35,27.85,56.35l2.98,7.68 c0.13,0.34,0.62,0.31,0.7-0.05c0.98-4.38,4.46-16.71,6.22-21.37c1.04-2.76,3.9-4.36,6.79-3.83c4.45,0.81,11.55,1.81,19.37,1.81 c0.03,0,0.06,0,0.08,0s0.06,0,0.08,0c7.82,0,14.92-1,19.37-1.81c2.9-0.53,5.76,1.08,6.79,3.83c1.76,4.68,5.25,17.1,6.21,21.42 c0.08,0.36,0.57,0.39,0.7,0.05C98.1,61.72,100.15,56.35,100.15,56.35z" fill="url(#hairHighlights_1_)"/>
  </g>
  <g id="hand_1_">
    <linearGradient id="SVGID_2_" gradientTransform="matrix(1 0 0 -1 0 128)" gradientUnits="userSpaceOnUse" x1="31.1525" x2="31.1525" y1="124.2996" y2="65.6625">
      <stop offset="0.5988" stop-color="#BA8D68"/>
      <stop offset="1" stop-color="#A47B62"/>
    </linearGradient>
    <path d="M43.28,35.44c-0.88,1.44-3.02,2.36-4.78,2.36c-0.33,0-0.64-0.03-0.93-0.1 c-1.27-0.28-2.88-0.76-4.38-0.76c-0.69,0-1.36,0.1-1.96,0.37c-1.91,0.85-3.14,2.75-3.14,4.85l-0.27,15.99 c-0.25,3.31-1.06,5.67-3.79,5.67c-2.13,0-2.89-1.32-3-2.67l-2.13-18.6L18.36,27c0-0.07,2.01-11.85,2.01-11.85L20.86,4h13.92 l-2.41,14.21c-0.42,2.98,0.99,6.43,2.4,8.33c2.29,3.11,5.25,3.51,5.93,3.69c1.86,0.26,2.51,0.89,2.92,1.7 C44.06,32.78,44.12,34.02,43.28,35.44z" fill="url(#SVGID_2_)"/>
  </g>
  <g id="hand">
    <linearGradient id="SVGID_3_" gradientTransform="matrix(1 0 0 -1 0 128)" gradientUnits="userSpaceOnUse" x1="96.8429" x2="96.8429" y1="124.163" y2="65.6975">
      <stop offset="0.5988" stop-color="#BA8D68"/>
      <stop offset="1" stop-color="#A47B62"/>
    </linearGradient>
    <path d="M109.63,27l-0.52,15.55l-2.14,18.6c-0.11,1.35-0.87,2.67-3,2.67c-2.73,0-3.54-2.36-3.79-5.67 l-0.26-15.99c0-2.1-1.24-4-3.15-4.85c-0.6-0.27-1.27-0.37-1.96-0.37c-1.5,0-3.1,0.48-4.37,0.76c-0.29,0.07-0.61,0.1-0.93,0.1 c-1.76,0-3.91-0.92-4.78-2.36c-0.86-1.42-0.8-2.66-0.36-3.51c0.42-0.81,1.06-1.44,2.93-1.7c0.68-0.18,3.63-0.58,5.93-3.69 c1.41-1.9,2.81-5.35,2.39-8.33L93.22,4h13.91l0.5,11.15C107.63,15.15,109.63,26.87,109.63,27z" fill="url(#SVGID_3_)"/>
  </g>
</svg>

<svg viewBox="0 0 128 128" xmlns="http://www.w3.org/2000/svg">
  <defs>
    <linearGradient id="SVGID_1_" gradientTransform="matrix(1 0 0 -1 0 0)" gradientUnits="userSpaceOnUse" x1="64" x2="64" y1="-95.7741" y2="-122.5662">
      <stop offset="0" stop-color="#00BFA5"/>
      <stop offset="0.4701" stop-color="#00B29A"/>
      <stop offset="1" stop-color="#009E89"/>
    </linearGradient>
    <radialGradient id="hairHighlights_1_" cx="64.0005" cy="-41.908619" gradientTransform="matrix(1 0 0 -1.1282 0 0)" gradientUnits="userSpaceOnUse" r="38.0924">
      <stop offset="0.7945" stop-color="#6D4C41" stop-opacity="0"/>
      <stop offset="1" stop-color="#6D4C41"/>
    </radialGradient>
    <linearGradient id="SVGID_2_" gradientTransform="matrix(1 0 0 -1 0 0)" gradientUnits="userSpaceOnUse" x1="31.1525" x2="31.1525" y1="-3.7004" y2="-62.3375">
      <stop offset="0.5988" stop-color="#BA8D68"/>
      <stop offset="1" stop-color="#A47B62"/>
    </linearGradient>
    <linearGradient id="SVGID_3_" gradientTransform="matrix(1 0 0 -1 0 0)" gradientUnits="userSpaceOnUse" x1="96.8429" x2="96.8429" y1="-3.837" y2="-62.3025">
      <stop offset="0.5988" stop-color="#BA8D68"/>
      <stop offset="1" stop-color="#A47B62"/>
    </linearGradient>
  </defs>
  <path d="M64.13,96 C64.09,96 64.04,96 64,96 C38.51,96.03 12,103.28 12,121.06 L12,124 L13.5,124 L15,124 L113,124 L114.5,124 L116,124 L116,121.06 C116,104.3 89.74,96 64.13,96 Z" fill="url(#SVGID_1_)"/>
  <path d="M91.33,50.43 L36.67,50.43 C30.78,50.43 25.96,55.57 25.96,61.84 C25.96,68.11 30.78,73.25 36.67,73.25 L91.32,73.25 C97.21,73.25 102.03,68.11 102.03,61.84 C102.03,55.57 97.22,50.43 91.33,50.43 Z" fill="#99674F"/>
  <path d="M54.92,90.08 L54.92,100.06 C54.92,104.57 58.38,108.23 64,108.23 C69.62,108.23 73.08,104.57 73.08,100.06 L73.08,90.08 L54.92,90.08 Z" fill="#99674F"/>
  <path d="M64,11.07 L64,11.07 L64,11.07 C46.6,11.07 30.48,29.68 30.48,56.47 C30.48,83.11 47.09,96.28 64,96.28 C80.91,96.28 97.52,83.1 97.52,56.46 C97.52,29.68 81.4,11.07 64,11.07 Z" fill="#BA8D68"/>
  <path id="mouth" d="M72.32,76.14 C69.17,78.01 58.85,78.01 55.71,76.14 C53.9,75.07 52.06,76.71 52.81,78.35 C53.55,79.96 59.18,83.71 64.04,83.71 C68.9,83.71 74.46,79.96 75.2,78.35 C75.95,76.71 74.12,75.06 72.32,76.14 Z" fill="#5D4037"/>
  <path id="nose" d="M67.86,68.06 C67.75,68.02 67.65,67.99 67.54,67.98 L60.46,67.98 C60.35,67.99 60.24,68.02 60.14,68.06 C59.5,68.32 59.15,68.98 59.45,69.69 C59.75,70.4 61.16,72.38 64,72.38 C66.84,72.38 68.25,70.39 68.55,69.69 C68.85,68.98 68.5,68.32 67.86,68.06 Z" fill="#99674F"/>
  <path d="M47.63,60.3 C45.57,60.3 43.73,59.8 42.45,59.01 C41.9,58.67 41.58,58.87 41.68,59.51 C42.05,61.99 44.58,63.91 47.63,63.91 C50.69,63.91 53.21,61.99 53.58,59.51 C53.68,58.87 53.36,58.67 52.81,59.01 C51.53,59.8 49.69,60.3 47.63,60.3 Z" fill="#49362E"/>
  <path d="M80.25,60.3 C78.19,60.3 76.35,59.8 75.07,59.01 C74.52,58.67 74.2,58.87 74.3,59.51 C74.68,61.99 77.2,63.91 80.25,63.91 C83.3,63.91 85.83,61.99 86.2,59.51 C86.3,58.87 85.98,58.67 85.43,59.01 C84.15,59.8 82.3,60.3 80.25,60.3 Z" fill="#49362E"/>
  <path d="M40.02,50.73 C43.2,46.22 50.68,46.07 54.43,49.91 C55.08,50.58 55.77,51.44 55.28,52.41 C54.74,53.48 53.63,53.31 52.72,52.94 C50.29,51.96 47.78,51.52 45.17,52.05 C44.04,52.28 43.07,52.75 42,53.13 C40.56,53.62 39.09,52.12 40.02,50.73 Z" fill="#613E31"/>
  <path d="M86.08,53.13 C83.85,52.16 81.59,51.6 79.13,51.88 C78.01,52.01 76.91,52.3 75.87,52.71 C75.04,53.04 74.15,53.57 73.29,52.99 C70.84,51.3 75.18,48.55 76.46,48 C79.22,46.81 82.51,46.92 85.18,48.31 C86.24,48.86 87.39,49.66 88.02,50.71 C88.81,52.02 87.63,53.76 86.08,53.13 Z" fill="#613E31"/>
  <path id="hair_7_" d="M64.02,4.21 L64.02,4.21 C64.01,4.21 64.01,4.21 64,4.21 C63.99,4.21 63.99,4.21 63.98,4.21 L63.98,4.21 C18.55,4.46 27.85,56.35 27.85,56.35 C27.85,56.35 29.89,61.7 30.82,64.06 C30.95,64.4 31.45,64.36 31.53,64.01 C32.5,59.67 35.99,47.28 37.75,42.61 C38.79,39.85 41.65,38.25 44.54,38.78 C48.99,39.59 56.09,40.59 63.91,40.59 C63.94,40.59 63.97,40.59 63.99,40.59 C64.01,40.59 64.05,40.59 64.07,40.59 C71.89,40.59 78.99,39.59 83.44,38.78 C86.34,38.25 89.2,39.86 90.23,42.61 C91.98,47.27 95.45,59.57 96.43,63.97 C96.51,64.33 97.01,64.36 97.14,64.02 L100.12,56.35 C100.15,56.35 109.46,4.46 64.02,4.21 Z" fill="#543930"/>
  <path id="hairHighlights" d="M100.15,56.35 C100.15,56.35 109.46,4.45 64.02,4.21 L64.02,4.21 C64.01,4.21 64.01,4.21 64,4.21 L64,4.21 C63.99,4.21 63.99,4.21 63.98,4.21 L63.98,4.21 C63.27,4.21 62.58,4.23 61.9,4.26 C60.55,4.32 59.24,4.42 57.98,4.57 C57.97,4.57 57.95,4.57 57.94,4.57 C57.85,4.58 57.77,4.6 57.68,4.61 C19.44,9.43 27.85,56.35 27.85,56.35 L30.83,64.03 C30.96,64.37 31.45,64.34 31.53,63.98 C32.51,59.6 35.99,47.27 37.75,42.61 C38.79,39.85 41.65,38.25 44.54,38.78 C48.99,39.59 56.09,40.59 63.91,40.59 C63.94,40.59 63.97,40.59 63.99,40.59 C64.01,40.59 64.05,40.59 64.07,40.59 C71.89,40.59 78.99,39.59 83.44,38.78 C86.34,38.25 89.2,39.86 90.23,42.61 C91.99,47.29 95.48,59.71 96.44,64.03 C96.52,64.39 97.01,64.42 97.14,64.08 C98.1,61.72 100.15,56.35 100.15,56.35 Z" fill="url(#hairHighlights_1_)"/>
  <path d="M43.28,35.44 C42.4,36.88 40.26,37.8 38.5,37.8 C38.17,37.8 37.86,37.77 37.57,37.7 C36.3,37.42 34.69,36.94 33.19,36.94 C32.5,36.94 31.83,37.04 31.23,37.31 C29.32,38.16 28.09,40.06 28.09,42.16 L27.82,58.15 C27.57,61.46 26.76,63.82 24.03,63.82 C21.9,63.82 21.14,62.5 21.03,61.15 L18.9,42.55 L18.36,27 C18.36,26.93 20.37,15.15 20.37,15.15 L20.86,4 L34.78,4 L32.37,18.21 C31.95,21.19 33.36,24.64 34.77,26.54 C37.06,29.65 40.02,30.05 40.7,30.23 C42.56,30.49 43.21,31.12 43.62,31.93 C44.06,32.78 44.12,34.02 43.28,35.44 Z" fill="url(#SVGID_2_)"/>
  <path d="M109.63,27 L109.11,42.55 L106.97,61.15 C106.86,62.5 106.1,63.82 103.97,63.82 C101.24,63.82 100.43,61.46 100.18,58.15 L99.92,42.16 C99.92,40.06 98.68,38.16 96.77,37.31 C96.17,37.04 95.5,36.94 94.81,36.94 C93.31,36.94 91.71,37.42 90.44,37.7 C90.15,37.77 89.83,37.8 89.51,37.8 C87.75,37.8 85.6,36.88 84.73,35.44 C83.87,34.02 83.93,32.78 84.37,31.93 C84.79,31.12 85.43,30.49 87.3,30.23 C87.98,30.05 90.93,29.65 93.23,26.54 C94.64,24.64 96.04,21.19 95.62,18.21 L93.22,4 L107.13,4 L107.63,15.15 C107.63,15.15 109.63,26.87 109.63,27 Z" fill="url(#SVGID_3_)"/>
</svg>
